packages/tokens/icons/computer/size32Px.svg

<svg viewBox="0 0 32 32" fill="none" xmlns="http://www.w3.org/2000/svg" width="1em" height="1em"><path d="M2.5 21.1529L2.5 8.50012C2.5 7.39555 3.39543 6.50013 4.49999 6.50012L27.5 6.50001C28.6046 6.5 29.5 7.39544 29.5 8.50001L29.5 21.1528C29.5 22.2574 28.6046 23.1528 27.5 23.1528L4.50001 23.1529C3.39544 23.1529 2.5 22.2575 2.5 21.1529Z" stroke="currentColor" stroke-linecap="round"/><path d="M15.9431 23.153L15.9431 27.5383" stroke="currentColor"/><path d="M8.66406 27.5383L23.1432 27.5383" stroke="currentColor" stroke-linecap="round"/></svg>

<svg xmlns="http://www.w3.org/2000/svg" fill="none" viewBox="0 0 32 32" width="1em" height="1em"><path stroke="currentColor" stroke-linecap="round" d="M2.5 21.153V8.5a2 2 0 0 1 2-2h23a2 2 0 0 1 2 2v12.653a2 2 0 0 1-2 2h-23a2 2 0 0 1-2-2Z"/><path stroke="currentColor" d="M15.943 23.153v4.385"/><path stroke="currentColor" stroke-linecap="round" d="M8.664 27.538h14.48"/></svg>
